src/img/icons/document-word.svg

<svg width="32" height="32" viewBox="0 0 32 32" fill="none" xmlns="http://www.w3.org/2000/svg">
<path d="M15.3259 15.5681L12.9196 21.5837L11.7165 15.6774C11.6071 15.2399 11.1696 14.9118 10.6774 15.0212C10.2399 15.0759 9.91182 15.5681 10.0212 16.0603L11.7712 24.8103C11.8259 25.1931 12.154 25.4665 12.5368 25.4665C12.9196 25.5212 13.3024 25.3024 13.4118 24.9196L16.1462 18.2478L18.8259 24.9196C18.9353 25.3024 19.2634 25.4665 19.6462 25.4665H19.7009C20.0837 25.4665 20.4118 25.1931 20.4665 24.8103L22.2165 16.0603C22.3259 15.5681 21.9978 15.1306 21.5603 15.0212C21.0681 14.9118 20.6306 15.2399 20.5212 15.6774L19.3181 21.5837L16.9118 15.5681C16.6384 14.8571 15.5993 14.8571 15.3259 15.5681Z" fill="#131212"/>
<path fill-rule="evenodd" clip-rule="evenodd" d="M5.67753 29.3225C6.12921 29.7742 6.67165 30 7.30484 30H24.8004C25.4336 30 25.9761 29.7742 26.4277 29.3225C26.8794 28.8708 27.1053 28.3284 27.1053 27.6952V10.316C27.1053 10.0001 27.0429 9.69988 26.9181 9.41521C26.7933 9.13079 26.6284 8.88284 26.4233 8.67137L20.4339 2.68195C20.2224 2.47686 19.9745 2.31193 19.6901 2.18716C19.4054 2.06239 19.1051 2 18.7893 2H7.30484C6.67165 2 6.12921 2.22584 5.67753 2.67753C5.22584 3.12921 5 3.67165 5 4.30484V27.6952C5 28.3284 5.22584 28.8708 5.67753 29.3225ZM18.8169 3.85168V9.08105C18.8169 9.40379 18.9283 9.67667 19.1511 9.89968C19.3738 10.1225 19.6466 10.2338 19.9693 10.2338H25.2536V27.6952C25.2536 27.8084 25.2064 27.9123 25.1121 28.0068C25.0175 28.1012 24.9136 28.1483 24.8004 28.1483H7.30484C7.19161 28.1483 7.08772 28.1012 6.99316 28.0068C6.89884 27.9123 6.85168 27.8084 6.85168 27.6952V4.30484C6.85168 4.19161 6.89884 4.08772 6.99316 3.99316C7.08772 3.89884 7.19161 3.85168 7.30484 3.85168H18.8169Z" fill="#131212"/>
</svg>

<svg xmlns="http://www.w3.org/2000/svg" viewBox="0 0 32 32">
  <path fill="currentColor" d="m15.326 15.568-2.406 6.016-1.204-5.907a.88.88 0 0 0-1.039-.656c-.437.055-.765.547-.656 1.04l1.75 8.75a.767.767 0 0 0 .766.655.785.785 0 0 0 .875-.546l2.734-6.672 2.68 6.672c.11.382.437.546.82.546h.055c.383 0 .71-.273.765-.656l1.75-8.75c.11-.492-.218-.93-.656-1.039-.492-.11-.93.219-1.039.656l-1.203 5.907-2.406-6.016c-.274-.71-1.313-.71-1.586 0Z"/>
  <path fill="currentColor" fill-rule="evenodd" d="M5.678 29.323A2.22 2.22 0 0 0 7.305 30H24.8c.634 0 1.176-.226 1.628-.677a2.22 2.22 0 0 0 .677-1.628V10.316a2.22 2.22 0 0 0-.187-.9 2.5 2.5 0 0 0-.495-.745l-5.99-5.989a2.5 2.5 0 0 0-.743-.495 2.22 2.22 0 0 0-.9-.187H7.304a2.22 2.22 0 0 0-1.627.678A2.22 2.22 0 0 0 5 4.305v23.39c0 .633.226 1.176.678 1.628ZM18.817 3.852V9.08c0 .323.111.596.334.819.223.223.496.334.818.334h5.285v17.461a.434.434 0 0 1-.142.312.434.434 0 0 1-.312.141H7.305a.434.434 0 0 1-.312-.141.434.434 0 0 1-.141-.312V4.305c0-.113.047-.217.141-.312a.434.434 0 0 1 .312-.141h11.512Z" clip-rule="evenodd"/>
</svg>
